X:1
T:Title
%%score ( 1 2 ) 3
L:1/8
M:4/4
K:E
V:1 treble nm="Choir Aahs, Unnamed-000"
V:2 treble 
V:3 bass nm="Choir Aahs, Unnamed-001"
V:1
 [GB] [GB]2 [EG] [EF] E2 [EG] | [Ec] [EB]3- [EB]3- [EB]/ z/ | [EB] [EB]2 [EG] [EF] E2 [EG] | %3
w: By~J.~E.~Hawes,~circa~1917 * * * * *|||
 [EG] [DF]3- [DF]3- [DF]/ z/ | [EB] [EB]2 [EG] [EF] E2 [EG] | [EB] [Ec]3- [Ec]2- [Ec]/ z/ [Ec]- | %6
w: |||
 [Ec]/[Ec]/[EB] [EB]2 [EB] [EG]2 [DF]- | [DF]/E/ E3- E2- E/ z/ [EB]- | %8
w: ||
 [EB]/[EB]/ [EB]2 [EG] [EF] E2 [EG] | z B3- B2- B/ z/ z | z8 | z F3- F2- F/ z/ z | %12
w: ||||
 [EB] [EB]2 [EG] [EF] E2 [EG] | [GB] [Ac]3- [Ac] [Ae]2 [Ad]- | %14
w: ||
 [Ad]/[Ac]/[GB] [GB]2 [GB] [EG]2 [DF]- | [DF]/[B,E]/ [B,E]3- [B,E]3- [B,E]/ z/ |] %16
w: ||
V:2
 x8 | x8 | x8 | x8 | x8 | x8 | x8 | x8 | x8 | [Ec] E2 E- E/ z/ E2 [EB]- | %10
 [EB]/[EB]/ [EB]2 [EG] [EF] E2 [EG]- | [EG]/[EG]/ D2 D- D/ z/ D3 | x8 | x8 | x8 | x8 |] %16
V:3
 [E,B,] [E,B,]2 [E,B,] [E,A,] [E,G,]2 [E,B,] | [E,A,] [E,G,]3- [E,G,]3- [E,G,]/ z/ | %2
 [E,G,] [E,G,]2 [E,B,] [F,A,] [E,G,]2 [E,B,] | [E,B,] [B,,B,]3- [B,,B,]3- [B,,B,]/ z/ | %4
 [E,G,] [E,G,]2 [E,B,] [E,A,] [E,G,]2 [E,B,] | [E,G,] A,3- A,2- A,/ z/ [A,,A,]- | %6
 [A,,A,]/[A,,A,]/[B,,G,] [B,,G,]2 [B,,G,] [B,,B,]2 [B,,A,]- | %7
 [B,,A,]/[E,G,]/ [E,G,]3- [E,G,]2- [E,G,]/ z/ [E,G,]- | %8
 [E,G,]/[E,G,]/ [E,G,]2 [E,B,] [E,A,] [E,G,]2 [E,B,] | %9
 [E,A,] [E,G,]2 [E,G,]- [E,G,]/ z/ [E,G,]2 [E,G,]- | %10
 [E,G,]/[E,G,]/ [E,G,]2 [E,B,] [E,A,] [E,G,]2 [E,B,]- | %11
 [E,B,]/[E,B,]/ [B,,B,]2 [B,,B,]- [B,,B,]/ z/ [B,,B,]3 | %12
 [E,G,] [E,G,]2 [E,B,] [E,A,] [E,G,]2 [E,B,] | [E,E] [A,E]3- [A,E] [A,C]2 [A,,D]- | %14
 [A,,D]/[A,,E]/[B,,E] [B,,E]2 [B,,E] [B,,B,]2 [B,,A,]- | %15
 [B,,A,]/[E,G,]/ [E,G,]3- [E,G,]3- [E,G,]/ z/ |] %16

